public/svgs/solid/calendar-arrow-up.svg

<svg xmlns="http://www.w3.org/2000/svg" viewBox="0 0 448 512"><!-- Font Awesome Pro 6.0.0-alpha2 by @fontawesome - https://fontawesome.com License - https://fontawesome.com/license (Commercial License) --><path d="M448 112V160H0V112C0 85.49 21.49 64 48 64H96V32C96 14.4 110.4 0 128 0H128C145.6 0 160 14.4 160 32V64H288V32C288 14.4 302.4 0 320 0H320C337.6 0 352 14.4 352 32V64H400C426.51 64 448 85.49 448 112ZM0 192H448V464C448 490.5 426.5 512 400 512H48C21.5 512 0 490.5 0 464V192ZM127.031 360.969C136.406 370.344 151.594 370.344 160.969 360.969L200 321.938V424C200 437.25 210.75 448 224 448S248 437.25 248 424V321.938L287.031 360.969C291.719 365.656 297.844 368 304 368S316.281 365.656 320.969 360.969C330.344 351.594 330.344 336.406 320.969 327.031L240.969 247.031C231.594 237.656 216.406 237.656 207.031 247.031L127.031 327.031C117.656 336.406 117.656 351.594 127.031 360.969Z"/></svg>

<svg xmlns="http://www.w3.org/2000/svg" viewBox="0 0 448 512"><!--! Font Awesome Pro 6.5.1 by @fontawesome - https://fontawesome.com License - https://fontawesome.com/license (Commercial License) Copyright 2023 Fonticons, Inc. --><path d="M128 0c17.7 0 32 14.3 32 32V64H288V32c0-17.7 14.3-32 32-32s32 14.3 32 32V64h48c26.5 0 48 21.5 48 48v48H0V112C0 85.5 21.5 64 48 64H96V32c0-17.7 14.3-32 32-32zM0 192H448V464c0 26.5-21.5 48-48 48H48c-26.5 0-48-21.5-48-48V192zM248 424V321.9l39 39c9.4 9.4 24.6 9.4 33.9 0s9.4-24.6 0-33.9l-80-80c-9.4-9.4-24.6-9.4-33.9 0l-80 80c-9.4 9.4-9.4 24.6 0 33.9s24.6 9.4 33.9 0l39-39V424c0 13.3 10.7 24 24 24s24-10.7 24-24z"/></svg>
